assets/img/header/Menu.svg

<svg width="18" height="12" viewBox="0 0 18 12" fill="none" xmlns="http://www.w3.org/2000/svg">
<path d="M1.20857 7L16.7914 7C17.4589 7 18 6.57915 18 6.06L18 5.94C18 5.42085 17.4589 5 16.7914 5L1.20857 5C0.541098 5 1.38053e-07 5.42085 9.26681e-08 5.94L8.21773e-08 6.06C3.6792e-08 6.57915 0.541098 7 1.20857 7Z" fill="#444444"/>
<path d="M0.940001 2L17.06 2C17.5791 2 18 1.57915 18 1.06L18 0.940001C18 0.420853 17.5791 -3.67921e-08 17.06 -8.21774e-08L0.940001 -1.49143e-06C0.420853 -1.53682e-06 1.38053e-07 0.420851 9.26681e-08 0.939999L8.21775e-08 1.06C3.67921e-08 1.57915 0.420853 2 0.940001 2Z" fill="#444444"/>
<path d="M0.940001 12L17.06 12C17.5791 12 18 11.5791 18 11.06L18 10.94C18 10.4209 17.5791 10 17.06 10L0.940001 10C0.420853 10 1.38053e-07 10.4209 9.26681e-08 10.94L8.21774e-08 11.06C3.67921e-08 11.5791 0.420853 12 0.940001 12Z" fill="#444444"/>
</svg>

<svg width="18" height="12" fill="none" xmlns="http://www.w3.org/2000/svg"><path d="M1.2 7h15.6c.7 0 1.2-.4 1.2-1s-.5-1-1.2-1H1.2C.5 5 0 5.4 0 6s.5 1 1.2 1ZM1 2h16c.6 0 1-.4 1-1s-.4-1-1-1H1a1 1 0 1 0 0 2ZM1 12h16c.6 0 1-.4 1-1s-.4-1-1-1H1a1 1 0 0 0 0 2Z" fill="#444"/></svg>
